vue/assets/icons/spreadsheet.svg

<svg width="16" height="18" viewBox="0 0 16 18" fill="none" xmlns="http://www.w3.org/2000/svg">
<path fill-rule="evenodd" clip-rule="evenodd" d="M11.087 0.996094C11.3524 0.996094 11.6068 1.10161 11.7944 1.28918L14.7099 4.20452C14.8975 4.39226 15.0028 4.64665 15.0028 4.91196V16.6696C15.0028 16.8537 14.8536 17.003 14.6694 17.003H1.33052C1.14629 17.003 0.99707 16.8536 0.99707 16.6696V1.32974C0.99707 1.14568 1.1463 0.996291 1.33052 0.996291L11.087 0.996094ZM9.5202 10.5023V11.1833H6.50562V10.6021L7.93119 9.07367C8.07445 8.91427 8.18745 8.77403 8.27018 8.65297C8.35291 8.52988 8.41243 8.41991 8.44875 8.32306C8.48709 8.22418 8.50626 8.13036 8.50626 8.04158C8.50626 7.9084 8.48407 7.7944 8.43967 7.69956C8.39528 7.60271 8.3297 7.52805 8.24294 7.47559C8.15819 7.42312 8.05327 7.39689 7.92816 7.39689C7.79499 7.39689 7.67998 7.42918 7.58312 7.49375C7.48829 7.55831 7.41565 7.64811 7.3652 7.76312C7.31677 7.87813 7.29256 8.00828 7.29256 8.15356H6.41785C6.41785 7.89125 6.4804 7.65113 6.6055 7.43321C6.73061 7.21327 6.90716 7.03873 7.13517 6.9096C7.36318 6.77844 7.63357 6.71286 7.94632 6.71286C8.25505 6.71286 8.51534 6.76331 8.72721 6.8642C8.94109 6.96307 9.10252 7.10633 9.21148 7.29398C9.32246 7.47962 9.37795 7.70158 9.37795 7.95986C9.37795 8.10514 9.35474 8.24739 9.30833 8.38662C9.26192 8.52383 9.19534 8.66104 9.10857 8.79825C9.02382 8.93344 8.92092 9.07065 8.79985 9.20988C8.67878 9.3491 8.5446 9.49337 8.3973 9.64269L7.63155 10.5023H9.5202ZM4.947 6.76734V11.1833H4.07532V7.7722L3.02809 8.10514V7.41808L4.85318 6.76734H4.947ZM11.548 8.60151H11.0818V9.26435H11.548C11.6973 9.26435 11.8264 9.28756 11.9354 9.33397C12.0443 9.38038 12.1281 9.45302 12.1866 9.55189C12.2451 9.64874 12.2744 9.77788 12.2744 9.93931C12.2744 10.0644 12.2471 10.1744 12.1926 10.2692C12.1402 10.362 12.0635 10.4347 11.9626 10.4871C11.8637 10.5376 11.7447 10.5628 11.6055 10.5628C11.4824 10.5628 11.3704 10.5376 11.2695 10.4871C11.1706 10.4367 11.0929 10.3671 11.0364 10.2783C10.9799 10.1895 10.9517 10.0886 10.9517 9.97563H10.077C10.077 10.1935 10.1194 10.3822 10.2041 10.5416C10.2909 10.699 10.4059 10.8302 10.5492 10.9351C10.6944 11.038 10.8559 11.1157 11.0334 11.1681C11.213 11.2186 11.3956 11.2438 11.5813 11.2438C11.8052 11.2438 12.012 11.2156 12.2017 11.1591C12.3914 11.1005 12.5569 11.0158 12.6981 10.9048C12.8414 10.7938 12.9523 10.6586 13.031 10.4992C13.1097 10.3378 13.1491 10.1542 13.1491 9.94839C13.1491 9.78091 13.1178 9.62857 13.0552 9.49136C12.9927 9.35213 12.8999 9.23207 12.7768 9.13118C12.6713 9.04298 12.5443 8.97257 12.3958 8.91994C12.5118 8.86608 12.6136 8.8013 12.7011 8.72561C12.8222 8.62068 12.915 8.50365 12.9796 8.37451C13.0441 8.24335 13.0764 8.10816 13.0764 7.96894C13.0764 7.69452 13.0139 7.46449 12.8888 7.27885C12.7637 7.09321 12.5891 6.95298 12.3652 6.85814C12.1412 6.76129 11.8799 6.71286 11.5813 6.71286C11.3169 6.71286 11.0748 6.76331 10.8548 6.8642C10.6349 6.96509 10.4594 7.10532 10.3282 7.2849C10.1991 7.46449 10.1345 7.67535 10.1345 7.91748H11.0092C11.0092 7.80852 11.0364 7.7157 11.0909 7.63903C11.1454 7.56235 11.218 7.50283 11.3088 7.46045C11.3996 7.41808 11.4985 7.39689 11.6055 7.39689C11.7407 7.39689 11.8526 7.42211 11.9414 7.47256C12.0302 7.52099 12.0958 7.58959 12.1382 7.67837C12.1826 7.76514 12.2047 7.86502 12.2047 7.97802C12.2047 8.10312 12.1805 8.21309 12.1321 8.30792C12.0857 8.40074 12.0141 8.47338 11.9172 8.52585C11.8204 8.57629 11.6973 8.60151 11.548 8.60151Z" fill="white"/>
</svg>

<svg width="16" height="18" viewBox="0 0 16 18" fill="none" xmlns="http://www.w3.org/2000/svg"><path fill-rule="evenodd" clip-rule="evenodd" d="M11.087.996a1 1 0 0 1 .707.293l2.916 2.916a1 1 0 0 1 .293.707V16.67c0 .184-.15.333-.334.333H1.331a.333.333 0 0 1-.334-.333V1.33c0-.184.15-.334.334-.334h9.756ZM9.52 10.502v.681H6.506v-.58l1.425-1.53c.143-.159.256-.299.34-.42a1.71 1.71 0 0 0 .178-.33.801.801 0 0 0-.01-.623.496.496 0 0 0-.196-.224.588.588 0 0 0-.315-.08.607.607 0 0 0-.345.098.616.616 0 0 0-.218.27.998.998 0 0 0-.072.39h-.875a1.407 1.407 0 0 1 .718-1.244 1.6 1.6 0 0 1 .81-.197c.31 0 .57.05.781.151.214.1.376.242.484.43.111.186.167.408.167.666 0 .145-.023.287-.07.427a1.927 1.927 0 0 1-.2.411 3.314 3.314 0 0 1-.308.412 9.44 9.44 0 0 1-.403.433l-.765.86H9.52ZM4.947 6.767v4.416h-.872v-3.41l-1.047.332v-.687l1.825-.65h.094Zm6.601 1.835h-.466v.662h.466c.15 0 .278.024.387.07a.521.521 0 0 1 .252.218.744.744 0 0 1 .087.387.65.65 0 0 1-.081.33.545.545 0 0 1-.23.218.777.777 0 0 1-.357.076.74.74 0 0 1-.336-.076.584.584 0 0 1-.234-.209.552.552 0 0 1-.084-.302h-.875c0 .217.042.406.127.566.087.157.202.288.345.393.145.103.307.18.484.233a2.166 2.166 0 0 0 1.168-.009 1.52 1.52 0 0 0 .497-.254c.143-.111.254-.246.333-.406a1.24 1.24 0 0 0 .118-.55c0-.168-.031-.32-.094-.458a.98.98 0 0 0-.278-.36 1.226 1.226 0 0 0-.381-.211 1.3 1.3 0 0 0 .305-.194 1.15 1.15 0 0 0 .279-.351.909.909 0 0 0 .096-.406c0-.274-.062-.505-.187-.69a1.158 1.158 0 0 0-.524-.42 1.962 1.962 0 0 0-.784-.146c-.264 0-.506.05-.726.151a1.32 1.32 0 0 0-.527.42c-.129.18-.194.391-.194.633h.875c0-.108.027-.201.082-.278a.543.543 0 0 1 .218-.179.693.693 0 0 1 .296-.063c.136 0 .248.025.336.076a.452.452 0 0 1 .197.205.649.649 0 0 1 .067.3.716.716 0 0 1-.073.33.498.498 0 0 1-.215.218.796.796 0 0 1-.369.076Z" fill="#fff"/></svg>
